X:7355
T:The Spey In Spate
O:england
C:James Scott Skinner
M:4/4
L:1/8
K:D
D2 FD A,DFA|dcBA ^GAFD|E2 GE B,EGB|gecA GECA,|
D2 FD A,DFA|dDcD BDAf|gefd ecdB|AFGE DABc||
d/d/d fd AdFA|DFAd fagf|e/e/e ge BeGB|CEAc egfe|
d/d/d fd AdFA|DFAd fagf|gefd ecdB|AFGE D4|]


